docs/.gitbook/assets/icon-crown-16@dark.svg

<svg width="32" height="32" viewBox="0 0 16 16" fill="none" xmlns="http://www.w3.org/2000/svg">
<rect x="0" y="0" width="16" height="16" fill="#181c1f"/>
<path fill-rule="evenodd" clip-rule="evenodd" d="M1.47586 2.05189C1.76293 1.93917 2.08974 2.01366 2.2996 2.23966L4.97761 5.12368L7.43056 2.2619C7.57304 2.09567 7.78106 2 8 2C8.21894 2 8.42696 2.09567 8.56944 2.2619L11.0224 5.12368L13.7004 2.23966C13.9103 2.01366 14.2371 1.93917 14.5241 2.05189C14.8112 2.16462 15 2.44159 15 2.75V11.25C15 11.4317 14.9341 11.6072 14.8144 11.7439L14.25 11.25C14.8144 11.7439 14.8141 11.7442 14.8138 11.7446L14.8131 11.7454L14.8116 11.7471L14.8082 11.751L14.7992 11.7609C14.7923 11.7685 14.7836 11.7779 14.773 11.789C14.7518 11.8113 14.7232 11.8405 14.687 11.8755C14.6144 11.9456 14.511 12.0392 14.3748 12.1481C14.1022 12.3662 13.6985 12.6455 13.1479 12.9208C12.0431 13.4732 10.3657 14 8 14C5.63432 14 3.9569 13.4732 2.85209 12.9208C2.30151 12.6455 1.89784 12.3662 1.62523 12.1481C1.489 12.0392 1.38561 11.9456 1.31304 11.8755C1.27675 11.8405 1.24816 11.8113 1.227 11.789C1.21642 11.7779 1.2077 11.7685 1.20081 11.7609L1.19183 11.751L1.18836 11.7471L1.18688 11.7454L1.1862 11.7446C1.18588 11.7442 1.18557 11.7439 1.75 11.25L1.18557 11.7439C1.06594 11.6072 1 11.4317 1 11.25V2.75C1 2.44159 1.18879 2.16462 1.47586 2.05189ZM2.5 10.9259C2.51924 10.942 2.53999 10.959 2.56227 10.9768C2.75841 11.1338 3.07349 11.3545 3.52291 11.5792C4.4181 12.0268 5.86568 12.5 8 12.5C10.1343 12.5 11.5819 12.0268 12.4771 11.5792C12.9265 11.3545 13.2416 11.1338 13.4377 10.9768C13.46 10.959 13.4808 10.942 13.5 10.9259V4.6599L11.5496 6.76034C11.4042 6.91697 11.1988 7.0041 10.9851 6.99985C10.7714 6.9956 10.5697 6.90038 10.4306 6.73809L8 3.90244L5.56944 6.73809C5.43034 6.90038 5.22861 6.9956 5.01491 6.99985C4.80121 7.0041 4.59585 6.91697 4.4504 6.76034L2.5 4.6599V10.9259Z" fill="#fff"/>
</svg>

<svg xmlns="http://www.w3.org/2000/svg" width="32" height="32" fill="none" viewBox="0 0 16 16"><path fill="#181c1f" d="M0 0h16v16H0z"/><path fill="#fff" fill-rule="evenodd" d="M1.476 2.052a.75.75 0 0 1 .824.188l2.678 2.884L7.43 2.262a.75.75 0 0 1 1.138 0l2.453 2.862L13.7 2.24a.75.75 0 0 1 1.3.51v8.5a.75.75 0 0 1-.186.494l-.564-.494.564.495-.002.002-.004.004-.009.01a2 2 0 0 1-.112.115q-.109.107-.312.272a7 7 0 0 1-1.227.773C12.043 13.473 10.366 14 8 14s-4.043-.527-5.148-1.08a7 7 0 0 1-1.227-.772 5 5 0 0 1-.424-.387l-.01-.01-.003-.004-.001-.002c-.001 0-.001-.001.563-.495l-.564.494A.75.75 0 0 1 1 11.25v-8.5a.75.75 0 0 1 .476-.698M2.5 10.926l.062.05c.196.158.511.378.96.603.896.448 2.344.921 4.478.921s3.582-.473 4.477-.92a5.4 5.4 0 0 0 1.023-.654V4.66l-1.95 2.1a.75.75 0 0 1-1.12-.022L8 3.902 5.57 6.738a.75.75 0 0 1-1.12.022L2.5 4.66z" clip-rule="evenodd"/></svg>
